!!!COM:	Bach, Johann Sebastian
!!!OMV:	Nun ruhen alle W&auml;lder
!!!OTL:	Nun ruhen alle W&auml;lder
**kern	**fb	**kern	**kern	**kern	**kern
*part5	*part5	*part4	*part3	*part2	*part1
*staff5	*	*staff4	*staff3	*staff2	*staff1
*I"Continuo	*	*I"Voice	*I"Voice	*I"Voice	*I"Voice
*I'Cont.	*	*I'V	*I'V	*I'V	*I'V
*clefF4	*	*clefF4	*clefGv2	*clefG2	*clefG2
*Trd0c0	*	*	*	*	*
*k[f#c#g#]	*	*k[f#c#g#]	*k[f#c#g#]	*k[f#c#g#]	*k[f#c#g#]
*M4/4	*	*M4/4	*M4/4	*M4/4	*M4/4
4A	.	4A	4e	4a	4cc#
=2	=2	=2	=2	=2	=2
4d	.	4d	4d	4f#	4a
8c#L	7 5 2	8c#L	4d	4g#	4b
8BJ	.	8BJ	.	.	.
4.A	.	4.A	4e	8aL	8cc#L
.	.	.	.	8bJ	8ddJ
.	.	.	4A	4cc#	4ee
8Gn	6 4 2	8Gn	.	.	.
=3	=3	=3	=3	=3	=3
2F#	6 5	2F#	4A	4cc#	2dd
.	4	.	4B	8bL	.
.	.	.	.	8aJ	.
4E#X;	6 5	4E#X;	4c#;	4g#;	4cc#;
4F#	.	4F#	4f#	4a	4cc#
=4	=4	=4	=4	=4	=4
8C#L	6	8C#L	4e	4a	4ee
8BB	.	8BB	.	.	.
8C#	.	8C#	4e	4a	4ee
8DJ	.	8DJ	.	.	.
4E	.	4E	4e	4g#	4b
4AA	.	4AA	4e	8bL	8ddL
.	.	.	.	8aJ	8cc#J
=5	=5	=5	=5	=5	=5
4BB	7 5	4BB	4e	2f#	2a
4BB#X	 	4BB#X	4d#X	.	.
4C#;	5	4C#;	4G#;	4e;	4g#;
4D	6 4 2	4D	4G#	4B	4e
=6	=6	=6	=6	=6	=6
4C#	6	4C#	4A	4e	4a
4BB	5	4BBn	4dn	8f#L	4b
.	6	.	.	8g#J	.
4AA	.	4AA	8eL	8a	8cc#
.	.	.	8A	16bLL	16ddLL
.	.	.	.	16cc#JJ	16eeJJ
4D	6	4D	8G#	8bL	8ddL
.	5	.	8AJ	8aJ	8cc#J
=7	=7	=7	=7	=7	=7
2.E;	.	2.E;	2.e;	2.g#;	2.b;
4E#X	6	4E#X	4c#	4g#	4cc#
=8	=8	=8	=8	=8	=8
!!linebreak:original
4F#	.	4F#	4c#	4f#	4a
4G#	6	4G#	4B	4en	4b
4A	.	4A	8AL	4e	8cc#L
.	.	.	8BJ	.	8ddJ
4A#X	6 5	4A#X	4c#	4f#	4ee
=9	=9	=9	=9	=9	=9
2B	5	2B	4B	4f#	2dd
.	6 #4|	.	4G#	4e#X	.
4F#;	#	4F#;	4A#X;	4f#;	4cc#;
4F#	n	4F#	4An	4f#	8cc#L
.	.	.	.	.	8ddJ
=10	=10	=10	=10	=10	=10
8C#L	6	8C#L	4A	4en	4ee
8BBJ	.	8BBJ	.	.	.
4C#	6	4C#	4A	8aL	4ee
.	5	.	.	8g#J	.
4D#X	6 5	4D#X	4A	4f#	4b
4E	6	4E	4G#	8e	4cc#
.	.	.	.	16d#XLL	.
.	.	.	.	16c#JJ	.
=11	=11	=11	=11	=11	=11
4E	6 4 2	4E	4c#	2f#	2a
4D#X	6 5	4D#X	4B	.	.
4E;	.	4E;	4B;	4e;	4g#;
4C#	.	4C#	4c#	4e	4e
=12	=12	=12	=12	=12	=12
8F#L	7	8F#L	4c#	4e	4a
8E	.	8E	.	.	.
8F#	6 4	8F#	4B	4dn	4b
8G#J	.	8G#J	.	.	.
4A	.	4A	4.e	8c#L	8cc#L
.	.	.	.	8eJ	8ddJ
8C#L	6	8C#L	.	4a	8eeL
8DJ	.	8DJ	8f#	.	8ddJ
=13	=13	=13	=13	=13	=13
4E	6 4	4E	4e	4a	4cc#
4E	5 3	4E	4d	4g#	4b
4AA;	.	4AA;	4c#;	4e;	4a;
=:|!	=:|!	=:|!	=:|!	=:|!	=:|!
*-	*-	*-	*-	*-	*-
!!!system-decoration: s1,s2,s3,s4,s5
